; generated by Slic3r 1.3.1-dev (Build adea0d9) on 2020-02-13 at 16:47:28

; external perimeters extrusion width = 0.44mm (2.86mm^3/s)
; perimeters extrusion width = 0.56mm (4.14mm^3/s)
; infill extrusion width = 0.50mm (3.66mm^3/s)
; solid infill extrusion width = 0.56mm (3.10mm^3/s)
; top infill extrusion width = 0.56mm (3.10mm^3/s)

M107
G92 E0
;D3D:START:START
T0
M104 S215 T0

G21
G90
M107
T0
G28
G29
M109 T0 S215 T0
G0 F3000
M107
T0
G92 E0
G0 X0 Y149 Z0.1 F3600
G1 Y49 E6.5 F1200
G0 Z1
G92 E0
; Filament gcode

G21 ; set units to millimeters
G90 ; use absolute coordinates
M82 ; use absolute distances for extrusion
G92 E0
G1 Z0.300 F7800.000
G1 E-2.00000 F2400.00000
G92 E0
G1 X20.796 Y20.796 F7800.000
G1 E2.00000 F2400.00000
G1 F1800.000
G1 X71.304 Y20.796 E3.67329
G1 X71.304 Y71.304 E5.34658
G1 X20.796 Y71.304 E7.01987
G1 X20.796 Y20.856 E8.69117
G1 X20.531 Y20.531 F7800.000
G1 F1800.000
G1 X71.569 Y20.531 E10.38206
G1 X71.569 Y71.569 E12.07295
G1 X20.531 Y71.569 E13.76384
G1 X20.531 Y20.591 E15.45274
G1 X20.265 Y20.265 F7800.000
G1 F1800.000
G1 X71.835 Y20.265 E17.16123
G1 X71.835 Y71.835 E18.86972
G1 X20.265 Y71.835 E20.57821
G1 X20.265 Y20.325 E22.28471
G1 X21.165 Y20.959 F7800.000
G1 F1800.000
G1 X20.959 Y21.165 E22.29440
G1 X20.959 Y21.541 E22.30686
G1 X21.541 Y20.959 E22.33416
G1 X21.917 Y20.959 E22.34661
G1 X20.959 Y21.917 E22.39152
G1 X20.959 Y22.293 E22.40397
G1 X22.293 Y20.959 E22.46650
G1 X22.668 Y20.959 E22.47895
G1 X20.959 Y22.668 E22.55908
G1 X20.959 Y23.044 E22.57153
G1 X23.044 Y20.959 E22.66928
G1 X23.420 Y20.959 E22.68173
G1 X20.959 Y23.420 E22.79708
G1 X20.959 Y23.796 E22.80954
G1 X23.796 Y20.959 E22.94250
G1 X24.171 Y20.959 E22.95495
G1 X20.959 Y24.171 E23.10553
G1 X20.959 Y24.547 E23.11798
G1 X24.547 Y20.959 E23.28617
G1 X24.923 Y20.959 E23.29862
G1 X20.959 Y24.923 E23.48442
G1 X20.959 Y25.299 E23.49687
G1 X25.299 Y20.959 E23.70028
G1 X25.674 Y20.959 E23.71273
G1 X20.959 Y25.674 E23.93375
G1 X20.959 Y26.050 E23.94620
G1 X26.050 Y20.959 E24.18483
G1 X26.426 Y20.959 E24.19729
G1 X20.959 Y26.426 E24.45353
G1 X20.959 Y26.802 E24.46598
G1 X26.802 Y20.959 E24.73983
G1 X27.177 Y20.959 E24.75228
G1 X20.959 Y27.177 E25.04374
G1 X20.959 Y27.553 E25.05620
G1 X27.553 Y20.959 E25.36527
G1 X27.929 Y20.959 E25.37772
G1 X20.959 Y27.929 E25.70441
G1 X20.959 Y28.305 E25.71686
G1 X28.305 Y20.959 E26.06115
G1 X28.680 Y20.959 E26.07360
G1 X20.959 Y28.680 E26.43551
G1 X20.959 Y29.056 E26.44796
G1 X29.056 Y20.959 E26.82748
G1 X29.432 Y20.959 E26.83993
G1 X20.959 Y29.432 E27.23706
G1 X20.959 Y29.808 E27.24951
G1 X29.808 Y20.959 E27.66425
G1 X30.184 Y20.959 E27.67670
G1 X20.959 Y30.184 E28.10905
G1 X20.959 Y30.559 E28.12150
G1 X30.559 Y20.959 E28.57146
G1 X30.935 Y20.959 E28.58391
G1 X20.959 Y30.935 E29.05148
G1 X20.959 Y31.311 E29.06393
G1 X31.311 Y20.959 E29.54911
G1 X31.687 Y20.959 E29.56157
G1 X20.959 Y31.687 E30.06436
G1 X20.959 Y32.062 E30.07681
G1 X32.062 Y20.959 E30.59721
G1 X32.438 Y20.959 E30.60966
G1 X20.959 Y32.438 E31.14768
G1 X20.959 Y32.814 E31.16013
G1 X32.814 Y20.959 E31.71575
G1 X33.190 Y20.959 E31.72821
G1 X20.959 Y33.190 E32.30144
G1 X20.959 Y33.565 E32.31389
G1 X33.565 Y20.959 E32.90474
G1 X33.941 Y20.959 E32.91719
G1 X20.959 Y33.941 E33.52565
G1 X20.959 Y34.317 E33.53810
G1 X34.317 Y20.959 E34.16416
G1 X34.693 Y20.959 E34.17662
G1 X20.959 Y34.693 E34.82029
G1 X20.959 Y35.068 E34.83275
G1 X35.068 Y20.959 E35.49404
G1 X35.444 Y20.959 E35.50649
G1 X20.959 Y35.444 E36.18539
G1 X20.959 Y35.820 E36.19784
G1 X35.820 Y20.959 E36.89435
G1 X36.196 Y20.959 E36.90680
G1 X20.959 Y36.196 E37.62092
G1 X20.959 Y36.571 E37.63337
G1 X36.571 Y20.959 E38.36511
G1 X36.947 Y20.959 E38.37756
G1 X20.959 Y36.947 E39.12690
G1 X20.959 Y37.323 E39.13935
G1 X37.323 Y20.959 E39.90630
G1 X37.699 Y20.959 E39.91876
G1 X20.959 Y37.699 E40.70332
G1 X20.959 Y38.075 E40.71577
G1 X38.075 Y20.959 E41.51795
G1 X38.450 Y20.959 E41.53040
G1 X20.959 Y38.450 E42.35018
G1 X20.959 Y38.826 E42.36264
G1 X38.826 Y20.959 E43.20003
G1 X39.202 Y20.959 E43.21249
G1 X20.959 Y39.202 E44.06749
G1 X20.959 Y39.578 E44.07994
G1 X39.578 Y20.959 E44.95256
G1 X39.953 Y20.959 E44.96501
G1 X20.959 Y39.953 E45.85524
G1 X20.959 Y40.329 E45.86769
G1 X40.329 Y20.959 E46.77553
G1 X40.705 Y20.959 E46.78799
G1 X20.959 Y40.705 E47.71344
G1 X20.959 Y41.081 E47.72589
G1 X41.081 Y20.959 E48.66895
G1 X41.456 Y20.959 E48.68140
G1 X20.959 Y41.456 E49.64207
G1 X20.959 Y41.832 E49.65452
G1 X41.832 Y20.959 E50.63281
G1 X42.208 Y20.959 E50.64526
G1 X20.959 Y42.208 E51.64115
G1 X20.959 Y42.584 E51.65360
G1 X42.584 Y20.959 E52.66711
G1 X42.959 Y20.959 E52.67956
G1 X20.959 Y42.959 E53.71067
G1 X20.959 Y43.335 E53.72313
G1 X43.335 Y20.959 E54.77185
G1 X43.711 Y20.959 E54.78430
G1 X20.959 Y43.711 E55.85064
G1 X20.959 Y44.087 E55.86309
G1 X44.087 Y20.959 E56.94704
G1 X44.462 Y20.959 E56.95949
G1 X20.959 Y44.462 E58.06105
G1 X20.959 Y44.838 E58.07350
G1 X44.838 Y20.959 E59.19267
G1 X45.214 Y20.959 E59.20512
G1 X20.959 Y45.214 E60.34190
G1 X20.959 Y45.590 E60.35435
G1 X45.590 Y20.959 E61.50874
G1 X45.965 Y20.959 E61.52119
G1 X20.959 Y45.965 E62.69319
G1 X20.959 Y46.341 E62.70565
G1 X46.341 Y20.959 E63.89526
G1 X46.717 Y20.959 E63.90771
G1 X20.959 Y46.717 E65.11493
G1 X20.959 Y47.093 E65.12738
G1 X47.093 Y20.959 E66.35222
G1 X47.469 Y20.959 E66.36467
G1 X20.959 Y47.469 E67.60711
G1 X20.959 Y47.844 E67.61957
G1 X47.844 Y20.959 E68.87962
G1 X48.220 Y20.959 E68.89207
G1 X20.959 Y48.220 E70.16974
G1 X20.959 Y48.596 E70.18219
G1 X48.596 Y20.959 E71.47746
G1 X48.972 Y20.959 E71.48992
G1 X20.959 Y48.972 E72.80280
G1 X20.959 Y49.347 E72.81526
G1 X49.347 Y20.959 E74.14575
G1 X49.723 Y20.959 E74.15821
G1 X20.959 Y49.723 E75.50631
G1 X20.959 Y50.099 E75.51877
G1 X50.099 Y20.959 E76.88448
G1 X50.475 Y20.959 E76.89694
G1 X20.959 Y50.475 E78.28027
G1 X20.959 Y50.850 E78.29272
G1 X50.850 Y20.959 E79.69366
G1 X51.226 Y20.959 E79.70611
G1 X20.959 Y51.226 E81.12466
G1 X20.959 Y51.602 E81.13712
G1 X51.602 Y20.959 E82.57328
G1 X51.978 Y20.959 E82.58573
G1 X20.959 Y51.978 E84.03950
G1 X20.959 Y52.353 E84.05195
G1 X52.353 Y20.959 E85.52334
G1 X52.729 Y20.959 E85.53579
G1 X20.959 Y52.729 E87.02478
G1 X20.959 Y53.105 E87.03724
G1 X53.105 Y20.959 E88.54384
G1 X53.481 Y20.959 E88.55629
G1 X20.959 Y53.481 E90.08051
G1 X20.959 Y53.856 E90.09296
G1 X53.856 Y20.959 E91.63479
G1 X54.232 Y20.959 E91.64724
G1 X20.959 Y54.232 E93.20668
G1 X20.959 Y54.608 E93.21913
G1 X54.608 Y20.959 E94.79618
G1 X54.984 Y20.959 E94.80863
G1 X20.959 Y54.984 E96.40329
G1 X20.959 Y55.360 E96.41574
G1 X55.360 Y20.959 E98.02801
G1 X55.735 Y20.959 E98.04046
G1 X20.959 Y55.735 E99.67034
G1 X20.959 Y56.111 E99.68280
G1 X56.111 Y20.959 E101.33029
G1 X56.487 Y20.959 E101.34274
G1 X20.959 Y56.487 E103.00784
G1 X20.959 Y56.863 E103.02029
G1 X56.863 Y20.959 E104.70301
G1 X57.238 Y20.959 E104.71546
G1 X20.959 Y57.238 E106.41578
G1 X20.959 Y57.614 E106.42823
G1 X57.614 Y20.959 E108.14617
G1 X57.990 Y20.959 E108.15862
G1 X20.959 Y57.990 E109.89417
G1 X20.959 Y58.366 E109.90662
G1 X58.366 Y20.959 E111.65977
G1 X58.741 Y20.959 E111.67223
G1 X20.959 Y58.741 E113.44299
G1 X20.959 Y59.117 E113.45544
G1 X59.117 Y20.959 E115.24382
G1 X59.493 Y20.959 E115.25627
G1 X20.959 Y59.493 E117.06226
G1 X20.959 Y59.869 E117.07471
G1 X59.869 Y20.959 E118.89831
G1 X60.244 Y20.959 E118.91077
G1 X20.959 Y60.244 E120.75197
G1 X20.959 Y60.620 E120.76443
G1 X60.620 Y20.959 E122.62325
G1 X60.996 Y20.959 E122.63570
G1 X20.959 Y60.996 E124.51213
G1 X20.959 Y61.372 E124.52458
G1 X61.372 Y20.959 E126.41862
G1 X61.747 Y20.959 E126.43108
G1 X20.959 Y61.747 E128.34273
G1 X20.959 Y62.123 E128.35518
G1 X62.123 Y20.959 E130.28445
G1 X62.499 Y20.959 E130.29690
G1 X20.959 Y62.499 E132.24377
G1 X20.959 Y62.875 E132.25622
G1 X62.875 Y20.959 E134.22071
G1 X63.250 Y20.959 E134.23316
G1 X20.959 Y63.250 E136.21526
G1 X20.959 Y63.626 E136.22771
G1 X63.626 Y20.959 E138.22742
G1 X64.002 Y20.959 E138.23987
G1 X20.959 Y64.002 E140.25718
G1 X20.959 Y64.378 E140.26964
G1 X64.378 Y20.959 E142.30457
G1 X64.754 Y20.959 E142.31702
G1 X20.959 Y64.754 E144.36956
G1 X20.959 Y65.129 E144.38201
G1 X65.129 Y20.959 E146.45216
G1 X65.505 Y20.959 E146.46461
G1 X20.959 Y65.505 E148.55237
G1 X20.959 Y65.881 E148.56482
G1 X65.881 Y20.959 E150.67019
G1 X66.257 Y20.959 E150.68265
G1 X20.959 Y66.257 E152.80563
G1 X20.959 Y66.632 E152.81808
G1 X66.632 Y20.959 E154.95867
G1 X67.008 Y20.959 E154.97113
G1 X20.959 Y67.008 E157.12933
G1 X20.959 Y67.384 E157.14178
G1 X67.384 Y20.959 E159.31759
G1 X67.760 Y20.959 E159.33005
G1 X20.959 Y67.760 E161.52347
G1 X20.959 Y68.135 E161.53592
G1 X68.135 Y20.959 E163.74696
G1 X68.511 Y20.959 E163.75941
G1 X20.959 Y68.511 E165.98806
G1 X20.959 Y68.887 E166.00051
G1 X68.887 Y20.959 E168.24677
G1 X69.263 Y20.959 E168.25922
G1 X20.959 Y69.263 E170.52309
G1 X20.959 Y69.638 E170.53554
G1 X69.638 Y20.959 E172.81702
G1 X70.014 Y20.959 E172.82947
G1 X20.959 Y70.014 E175.12856
G1 X20.959 Y70.390 E175.14101
G1 X70.390 Y20.959 E177.45771
G1 X70.766 Y20.959 E177.47016
G1 X20.959 Y70.766 E179.80448
G1 X20.959 Y71.141 E179.81693
G1 X71.141 Y20.959 E182.16885
G1 X71.141 Y21.334 E182.18130
G1 X21.334 Y71.141 E184.51561
G1 X21.710 Y71.141 E184.52806
G1 X71.141 Y21.710 E186.84476
G1 X71.141 Y22.086 E186.85722
G1 X22.086 Y71.141 E189.15631
G1 X22.462 Y71.141 E189.16876
G1 X71.141 Y22.462 E191.45024
G1 X71.141 Y22.837 E191.46269
G1 X22.837 Y71.141 E193.72656
G1 X23.213 Y71.141 E193.73901
G1 X71.141 Y23.213 E195.98527
G1 X71.141 Y23.589 E195.99772
G1 X23.589 Y71.141 E198.22636
G1 X23.965 Y71.141 E198.23882
G1 X71.141 Y23.965 E200.44985
G1 X71.141 Y24.340 E200.46230
G1 X24.340 Y71.141 E202.65573
G1 X24.716 Y71.141 E202.66818
G1 X71.141 Y24.716 E204.84400
G1 X71.141 Y25.092 E204.85645
G1 X25.092 Y71.141 E207.01465
G1 X25.468 Y71.141 E207.02710
G1 X71.141 Y25.468 E209.16770
G1 X71.141 Y25.843 E209.18015
G1 X25.843 Y71.141 E211.30313
G1 X26.219 Y71.141 E211.31558
G1 X71.141 Y26.219 E213.42095
G1 X71.141 Y26.595 E213.43340
G1 X26.595 Y71.141 E215.52116
G1 X26.971 Y71.141 E215.53362
G1 X71.141 Y26.971 E217.60377
G1 X71.141 Y27.346 E217.61622
G1 X27.346 Y71.141 E219.66876
G1 X27.722 Y71.141 E219.68121
G1 X71.141 Y27.722 E221.71614
G1 X71.141 Y28.098 E221.72859
G1 X28.098 Y71.141 E223.74591
G1 X28.474 Y71.141 E223.75836
G1 X71.141 Y28.474 E225.75807
G1 X71.141 Y28.850 E225.77052
G1 X28.850 Y71.141 E227.75261
G1 X29.225 Y71.141 E227.76507
G1 X71.141 Y29.225 E229.72955
G1 X71.141 Y29.601 E229.74200
G1 X29.601 Y71.141 E231.68888
G1 X29.977 Y71.141 E231.70133
G1 X71.141 Y29.977 E233.63059
G1 X71.141 Y30.353 E233.64304
G1 X30.353 Y71.141 E235.55470
G1 X30.728 Y71.141 E235.56715
G1 X71.141 Y30.728 E237.46119
G1 X71.141 Y31.104 E237.47364
G1 X31.104 Y71.141 E239.35007
G1 X31.480 Y71.141 E239.36253
G1 X71.141 Y31.480 E241.22135
G1 X71.141 Y31.856 E241.23380
G1 X31.856 Y71.141 E243.07501
G1 X32.231 Y71.141 E243.08746
G1 X71.141 Y32.231 E244.91106
G1 X71.141 Y32.607 E244.92351
G1 X32.607 Y71.141 E246.72950
G1 X32.983 Y71.141 E246.74195
G1 X71.141 Y32.983 E248.53033
G1 X71.141 Y33.359 E248.54278
G1 X33.359 Y71.141 E250.31355
G1 X33.734 Y71.141 E250.32600
G1 X71.141 Y33.734 E252.07915
G1 X71.141 Y34.110 E252.09161
G1 X34.110 Y71.141 E253.82715
G1 X34.486 Y71.141 E253.83960
G1 X71.141 Y34.486 E255.55754
G1 X71.141 Y34.862 E255.56999
G1 X34.862 Y71.141 E257.27031
G1 X35.237 Y71.141 E257.28277
G1 X71.141 Y35.237 E258.96548
G1 X71.141 Y35.613 E258.97793
G1 X35.613 Y71.141 E260.64303
G1 X35.989 Y71.141 E260.65548
G1 X71.141 Y35.989 E262.30298
G1 X71.141 Y36.365 E262.31543
G1 X36.365 Y71.141 E263.94531
G1 X36.740 Y71.141 E263.95776
G1 X71.141 Y36.740 E265.57003
G1 X71.141 Y37.116 E265.58248
G1 X37.116 Y71.141 E267.17714
G1 X37.492 Y71.141 E267.18959
G1 X71.141 Y37.492 E268.76664
G1 X71.141 Y37.868 E268.77909
G1 X37.868 Y71.141 E270.33853
G1 X38.244 Y71.141 E270.35098
G1 X71.141 Y38.244 E271.89281
G1 X71.141 Y38.619 E271.90526
G1 X38.619 Y71.141 E273.42948
G1 X38.995 Y71.141 E273.44193
G1 X71.141 Y38.995 E274.94853
G1 X71.141 Y39.371 E274.96099
G1 X39.371 Y71.141 E276.44998
G1 X39.747 Y71.141 E276.46243
G1 X71.141 Y39.747 E277.93382
G1 X71.141 Y40.122 E277.94627
G1 X40.122 Y71.141 E279.40004
G1 X40.498 Y71.141 E279.41249
G1 X71.141 Y40.498 E280.84865
G1 X71.141 Y40.874 E280.86111
G1 X40.874 Y71.141 E282.27966
G1 X41.250 Y71.141 E282.29211
G1 X71.141 Y41.250 E283.69305
G1 X71.141 Y41.625 E283.70550
G1 X41.625 Y71.141 E285.08883
G1 X42.001 Y71.141 E285.10129
G1 X71.141 Y42.001 E286.46700
G1 X71.141 Y42.377 E286.47946
G1 X42.377 Y71.141 E287.82756
G1 X42.753 Y71.141 E287.84002
G1 X71.141 Y42.753 E289.17051
G1 X71.141 Y43.128 E289.18297
G1 X43.128 Y71.141 E290.49585
G1 X43.504 Y71.141 E290.50830
G1 X71.141 Y43.504 E291.80358
G1 X71.141 Y43.880 E291.81603
G1 X43.880 Y71.141 E293.09370
G1 X44.256 Y71.141 E293.10615
G1 X71.141 Y44.256 E294.36620
G1 X71.141 Y44.631 E294.37866
G1 X44.631 Y71.141 E295.62110
G1 X45.007 Y71.141 E295.63355
G1 X71.141 Y45.007 E296.85838
G1 X71.141 Y45.383 E296.87084
G1 X45.383 Y71.141 E298.07806
G1 X45.759 Y71.141 E298.09051
G1 X71.141 Y45.759 E299.28012
G1 X71.141 Y46.135 E299.29257
G1 X46.135 Y71.141 E300.46457
G1 X46.510 Y71.141 E300.47703
G1 X71.141 Y46.510 E301.63142
G1 X71.141 Y46.886 E301.64387
G1 X46.886 Y71.141 E302.78065
G1 X47.262 Y71.141 E302.79310
G1 X71.141 Y47.262 E303.91227
G1 X71.141 Y47.638 E303.92472
G1 X47.638 Y71.141 E305.02628
G1 X48.013 Y71.141 E305.03873
G1 X71.141 Y48.013 E306.12268
G1 X71.141 Y48.389 E306.13513
G1 X48.389 Y71.141 E307.20146
G1 X48.765 Y71.141 E307.21392
G1 X71.141 Y48.765 E308.26264
G1 X71.141 Y49.141 E308.27509
G1 X49.141 Y71.141 E309.30621
G1 X49.516 Y71.141 E309.31866
G1 X71.141 Y49.516 E310.33216
G1 X71.141 Y49.892 E310.34462
G1 X49.892 Y71.141 E311.34051
G1 X50.268 Y71.141 E311.35296
G1 X71.141 Y50.268 E312.33124
G1 X71.141 Y50.644 E312.34369
G1 X50.644 Y71.141 E313.30437
G1 X51.019 Y71.141 E313.31682
G1 X71.141 Y51.019 E314.25988
G1 X71.141 Y51.395 E314.27233
G1 X51.395 Y71.141 E315.19778
G1 X51.771 Y71.141 E315.21023
G1 X71.141 Y51.771 E316.11807
G1 X71.141 Y52.147 E316.13052
G1 X52.147 Y71.141 E317.02075
G1 X52.522 Y71.141 E317.03320
G1 X71.141 Y52.522 E317.90582
G1 X71.141 Y52.898 E317.91827
G1 X52.898 Y71.141 E318.77328
G1 X53.274 Y71.141 E318.78573
G1 X71.141 Y53.274 E319.62313
G1 X71.141 Y53.650 E319.63558
G1 X53.650 Y71.141 E320.45537
G1 X54.025 Y71.141 E320.46782
G1 X71.141 Y54.025 E321.26999
G1 X71.141 Y54.401 E321.28244
G1 X54.401 Y71.141 E322.06701
G1 X54.777 Y71.141 E322.07946
G1 X71.141 Y54.777 E322.84641
G1 X71.141 Y55.153 E322.85887
G1 X55.153 Y71.141 E323.60821
G1 X55.529 Y71.141 E323.62066
G1 X71.141 Y55.529 E324.35239
G1 X71.141 Y55.904 E324.36484
G1 X55.904 Y71.141 E325.07896
G1 X56.280 Y71.141 E325.09142
G1 X71.141 Y56.280 E325.78793
G1 X71.141 Y56.656 E325.80038
G1 X56.656 Y71.141 E326.47928
G1 X57.032 Y71.141 E326.49173
G1 X71.141 Y57.032 E327.15302
G1 X71.141 Y57.407 E327.16547
G1 X57.407 Y71.141 E327.80915
G1 X57.783 Y71.141 E327.82160
G1 X71.141 Y57.783 E328.44767
G1 X71.141 Y58.159 E328.46012
G1 X58.159 Y71.141 E329.06857
G1 X58.535 Y71.141 E329.08103
G1 X71.141 Y58.535 E329.67187
G1 X71.141 Y58.910 E329.68432
G1 X58.910 Y71.141 E330.25756
G1 X59.286 Y71.141 E330.27001
G1 X71.141 Y59.286 E330.82563
G1 X71.141 Y59.662 E330.83809
G1 X59.662 Y71.141 E331.37610
G1 X60.038 Y71.141 E331.38855
G1 X71.141 Y60.038 E331.90895
G1 X71.141 Y60.413 E331.92141
G1 X60.413 Y71.141 E332.42420
G1 X60.789 Y71.141 E332.43665
G1 X71.141 Y60.789 E332.92183
G1 X71.141 Y61.165 E332.93428
G1 X61.165 Y71.141 E333.40185
G1 X61.541 Y71.141 E333.41430
G1 X71.141 Y61.541 E333.86426
G1 X71.141 Y61.916 E333.87671
G1 X61.916 Y71.141 E334.30906
G1 X62.292 Y71.141 E334.32152
G1 X71.141 Y62.292 E334.73625
G1 X71.141 Y62.668 E334.74870
G1 X62.668 Y71.141 E335.14583
G1 X63.044 Y71.141 E335.15828
G1 X71.141 Y63.044 E335.53780
G1 X71.141 Y63.420 E335.55025
G1 X63.420 Y71.141 E335.91216
G1 X63.795 Y71.141 E335.92461
G1 X71.141 Y63.795 E336.26890
G1 X71.141 Y64.171 E336.28136
G1 X64.171 Y71.141 E336.60804
G1 X64.547 Y71.141 E336.62049
