; generated by Slic3r 1.3.1-dev (Build adea0d9) on 2020-02-13 at 12:14:09

; external perimeters extrusion width = 0.44mm (2.86mm^3/s)
; perimeters extrusion width = 0.56mm (4.14mm^3/s)
; infill extrusion width = 0.50mm (3.66mm^3/s)
; solid infill extrusion width = 0.56mm (3.10mm^3/s)
; top infill extrusion width = 0.56mm (3.10mm^3/s)

M107
G92 E0
;D3D:START:START
T0
M104 S215 T0

G21
G90
M107
T0
G28
G29
M109 T0 S215 T0
G0 F3000
M107
T0
G92 E0
G0 X0 Y149 Z0.1 F3600
G1 Y49 E6.5 F1200
G0 Z1
G92 E0
; Filament gcode

G21 ; set units to millimeters
G90 ; use absolute coordinates
M82 ; use absolute distances for extrusion
G92 E0
G1 Z0.300 F7800.000
G1 E-2.00000 F2400.00000
G92 E0
G1 X49.746 Y49.746 F7800.000
G1 E2.00000 F2400.00000
G1 F1800.000
G1 X100.254 Y49.746 E3.67329
G1 X100.254 Y100.254 E5.34658
G1 X49.746 Y100.254 E7.01987
G1 X49.746 Y49.806 E8.69117
G1 X49.481 Y49.481 F7800.000
G1 F1800.000
G1 X100.519 Y49.481 E10.38206
G1 X100.519 Y100.519 E12.07295
G1 X49.481 Y100.519 E13.76384
G1 X49.481 Y49.541 E15.45274
G1 X49.215 Y49.215 F7800.000
G1 F1800.000
G1 X100.785 Y49.215 E17.16123
G1 X100.785 Y100.785 E18.86972
G1 X49.215 Y100.785 E20.57821
G1 X49.215 Y49.275 E22.28471
G1 X50.115 Y49.909 F7800.000
G1 F1800.000
G1 X49.909 Y50.115 E22.29440
G1 X49.909 Y50.491 E22.30686
G1 X50.491 Y49.909 E22.33416
G1 X50.867 Y49.909 E22.34661
G1 X49.909 Y50.867 E22.39152
G1 X49.909 Y51.243 E22.40397
G1 X51.243 Y49.909 E22.46650
G1 X51.618 Y49.909 E22.47895
G1 X49.909 Y51.618 E22.55908
G1 X49.909 Y51.994 E22.57153
G1 X51.994 Y49.909 E22.66928
G1 X52.370 Y49.909 E22.68173
G1 X49.909 Y52.370 E22.79708
G1 X49.909 Y52.746 E22.80954
G1 X52.746 Y49.909 E22.94250
G1 X53.121 Y49.909 E22.95495
G1 X49.909 Y53.121 E23.10553
G1 X49.909 Y53.497 E23.11798
G1 X53.497 Y49.909 E23.28617
G1 X53.873 Y49.909 E23.29862
G1 X49.909 Y53.873 E23.48442
G1 X49.909 Y54.249 E23.49687
G1 X54.249 Y49.909 E23.70028
G1 X54.624 Y49.909 E23.71273
G1 X49.909 Y54.624 E23.93375
G1 X49.909 Y55.000 E23.94620
G1 X55.000 Y49.909 E24.18483
G1 X55.376 Y49.909 E24.19729
G1 X49.909 Y55.376 E24.45353
G1 X49.909 Y55.752 E24.46598
G1 X55.752 Y49.909 E24.73983
G1 X56.127 Y49.909 E24.75228
G1 X49.909 Y56.127 E25.04374
G1 X49.909 Y56.503 E25.05620
G1 X56.503 Y49.909 E25.36527
G1 X56.879 Y49.909 E25.37772
G1 X49.909 Y56.879 E25.70441
G1 X49.909 Y57.255 E25.71686
G1 X57.255 Y49.909 E26.06115
G1 X57.630 Y49.909 E26.07360
G1 X49.909 Y57.630 E26.43551
G1 X49.909 Y58.006 E26.44796
G1 X58.006 Y49.909 E26.82748
G1 X58.382 Y49.909 E26.83993
G1 X49.909 Y58.382 E27.23706
G1 X49.909 Y58.758 E27.24951
G1 X58.758 Y49.909 E27.66425
G1 X59.134 Y49.909 E27.67670
G1 X49.909 Y59.134 E28.10905
G1 X49.909 Y59.509 E28.12150
G1 X59.509 Y49.909 E28.57146
G1 X59.885 Y49.909 E28.58391
G1 X49.909 Y59.885 E29.05148
G1 X49.909 Y60.261 E29.06393
G1 X60.261 Y49.909 E29.54911
G1 X60.637 Y49.909 E29.56157
G1 X49.909 Y60.637 E30.06436
G1 X49.909 Y61.012 E30.07681
G1 X61.012 Y49.909 E30.59721
G1 X61.388 Y49.909 E30.60966
G1 X49.909 Y61.388 E31.14768
G1 X49.909 Y61.764 E31.16013
G1 X61.764 Y49.909 E31.71575
G1 X62.140 Y49.909 E31.72821
G1 X49.909 Y62.140 E32.30144
G1 X49.909 Y62.515 E32.31389
G1 X62.515 Y49.909 E32.90474
G1 X62.891 Y49.909 E32.91719
G1 X49.909 Y62.891 E33.52565
G1 X49.909 Y63.267 E33.53810
G1 X63.267 Y49.909 E34.16416
G1 X63.643 Y49.909 E34.17662
G1 X49.909 Y63.643 E34.82029
G1 X49.909 Y64.018 E34.83275
G1 X64.018 Y49.909 E35.49404
G1 X64.394 Y49.909 E35.50649
G1 X49.909 Y64.394 E36.18539
G1 X49.909 Y64.770 E36.19784
G1 X64.770 Y49.909 E36.89435
G1 X65.146 Y49.909 E36.90680
G1 X49.909 Y65.146 E37.62092
G1 X49.909 Y65.521 E37.63337
G1 X65.521 Y49.909 E38.36511
G1 X65.897 Y49.909 E38.37756
G1 X49.909 Y65.897 E39.12690
G1 X49.909 Y66.273 E39.13935
G1 X66.273 Y49.909 E39.90630
G1 X66.649 Y49.909 E39.91876
G1 X49.909 Y66.649 E40.70332
G1 X49.909 Y67.025 E40.71577
G1 X67.025 Y49.909 E41.51795
G1 X67.400 Y49.909 E41.53040
G1 X49.909 Y67.400 E42.35018
G1 X49.909 Y67.776 E42.36264
G1 X67.776 Y49.909 E43.20003
G1 X68.152 Y49.909 E43.21249
G1 X49.909 Y68.152 E44.06749
G1 X49.909 Y68.528 E44.07994
G1 X68.528 Y49.909 E44.95256
G1 X68.903 Y49.909 E44.96501
G1 X49.909 Y68.903 E45.85524
G1 X49.909 Y69.279 E45.86769
G1 X69.279 Y49.909 E46.77553
G1 X69.655 Y49.909 E46.78799
G1 X49.909 Y69.655 E47.71344
G1 X49.909 Y70.031 E47.72589
G1 X70.031 Y49.909 E48.66895
G1 X70.406 Y49.909 E48.68140
G1 X49.909 Y70.406 E49.64207
G1 X49.909 Y70.782 E49.65452
G1 X70.782 Y49.909 E50.63281
G1 X71.158 Y49.909 E50.64526
G1 X49.909 Y71.158 E51.64115
G1 X49.909 Y71.534 E51.65360
G1 X71.534 Y49.909 E52.66711
G1 X71.909 Y49.909 E52.67956
G1 X49.909 Y71.909 E53.71067
G1 X49.909 Y72.285 E53.72313
G1 X72.285 Y49.909 E54.77185
G1 X72.661 Y49.909 E54.78430
G1 X49.909 Y72.661 E55.85064
G1 X49.909 Y73.037 E55.86309
G1 X73.037 Y49.909 E56.94704
G1 X73.412 Y49.909 E56.95949
G1 X49.909 Y73.412 E58.06105
G1 X49.909 Y73.788 E58.07350
G1 X73.788 Y49.909 E59.19267
G1 X74.164 Y49.909 E59.20512
G1 X49.909 Y74.164 E60.34190
G1 X49.909 Y74.540 E60.35435
G1 X74.540 Y49.909 E61.50874
G1 X74.915 Y49.909 E61.52119
G1 X49.909 Y74.915 E62.69319
G1 X49.909 Y75.291 E62.70565
G1 X75.291 Y49.909 E63.89526
G1 X75.667 Y49.909 E63.90771
G1 X49.909 Y75.667 E65.11493
G1 X49.909 Y76.043 E65.12738
G1 X76.043 Y49.909 E66.35222
G1 X76.419 Y49.909 E66.36467
G1 X49.909 Y76.419 E67.60711
G1 X49.909 Y76.794 E67.61957
G1 X76.794 Y49.909 E68.87962
G1 X77.170 Y49.909 E68.89207
G1 X49.909 Y77.170 E70.16974
G1 X49.909 Y77.546 E70.18219
G1 X77.546 Y49.909 E71.47746
G1 X77.922 Y49.909 E71.48992
G1 X49.909 Y77.922 E72.80280
G1 X49.909 Y78.297 E72.81526
G1 X78.297 Y49.909 E74.14575
G1 X78.673 Y49.909 E74.15821
G1 X49.909 Y78.673 E75.50631
G1 X49.909 Y79.049 E75.51877
G1 X79.049 Y49.909 E76.88448
G1 X79.425 Y49.909 E76.89694
G1 X49.909 Y79.425 E78.28027
G1 X49.909 Y79.800 E78.29272
G1 X79.800 Y49.909 E79.69366
G1 X80.176 Y49.909 E79.70611
G1 X49.909 Y80.176 E81.12466
G1 X49.909 Y80.552 E81.13712
G1 X80.552 Y49.909 E82.57328
G1 X80.928 Y49.909 E82.58573
G1 X49.909 Y80.928 E84.03950
G1 X49.909 Y81.303 E84.05195
G1 X81.303 Y49.909 E85.52334
G1 X81.679 Y49.909 E85.53579
G1 X49.909 Y81.679 E87.02478
G1 X49.909 Y82.055 E87.03724
G1 X82.055 Y49.909 E88.54384
G1 X82.431 Y49.909 E88.55629
G1 X49.909 Y82.431 E90.08051
G1 X49.909 Y82.806 E90.09296
G1 X82.806 Y49.909 E91.63479
G1 X83.182 Y49.909 E91.64724
G1 X49.909 Y83.182 E93.20668
G1 X49.909 Y83.558 E93.21913
G1 X83.558 Y49.909 E94.79618
G1 X83.934 Y49.909 E94.80863
G1 X49.909 Y83.934 E96.40329
G1 X49.909 Y84.310 E96.41574
G1 X84.310 Y49.909 E98.02801
G1 X84.685 Y49.909 E98.04046
G1 X49.909 Y84.685 E99.67034
G1 X49.909 Y85.061 E99.68280
G1 X85.061 Y49.909 E101.33029
G1 X85.437 Y49.909 E101.34274
G1 X49.909 Y85.437 E103.00784
G1 X49.909 Y85.813 E103.02029
G1 X85.813 Y49.909 E104.70301
G1 X86.188 Y49.909 E104.71546
G1 X49.909 Y86.188 E106.41578
G1 X49.909 Y86.564 E106.42823
G1 X86.564 Y49.909 E108.14617
G1 X86.940 Y49.909 E108.15862
G1 X49.909 Y86.940 E109.89417
G1 X49.909 Y87.316 E109.90662
G1 X87.316 Y49.909 E111.65977
G1 X87.691 Y49.909 E111.67223
G1 X49.909 Y87.691 E113.44299
G1 X49.909 Y88.067 E113.45544
G1 X88.067 Y49.909 E115.24382
G1 X88.443 Y49.909 E115.25627
G1 X49.909 Y88.443 E117.06226
G1 X49.909 Y88.819 E117.07471
G1 X88.819 Y49.909 E118.89831
G1 X89.194 Y49.909 E118.91077
G1 X49.909 Y89.194 E120.75197
G1 X49.909 Y89.570 E120.76443
G1 X89.570 Y49.909 E122.62325
G1 X89.946 Y49.909 E122.63570
G1 X49.909 Y89.946 E124.51213
G1 X49.909 Y90.322 E124.52458
G1 X90.322 Y49.909 E126.41862
G1 X90.697 Y49.909 E126.43108
G1 X49.909 Y90.697 E128.34273
G1 X49.909 Y91.073 E128.35518
G1 X91.073 Y49.909 E130.28445
G1 X91.449 Y49.909 E130.29690
G1 X49.909 Y91.449 E132.24377
G1 X49.909 Y91.825 E132.25622
G1 X91.825 Y49.909 E134.22071
G1 X92.200 Y49.909 E134.23316
G1 X49.909 Y92.200 E136.21526
G1 X49.909 Y92.576 E136.22771
G1 X92.576 Y49.909 E138.22742
G1 X92.952 Y49.909 E138.23987
G1 X49.909 Y92.952 E140.25718
G1 X49.909 Y93.328 E140.26964
G1 X93.328 Y49.909 E142.30457
G1 X93.704 Y49.909 E142.31702
G1 X49.909 Y93.704 E144.36956
G1 X49.909 Y94.079 E144.38201
G1 X94.079 Y49.909 E146.45216
G1 X94.455 Y49.909 E146.46461
G1 X49.909 Y94.455 E148.55237
G1 X49.909 Y94.831 E148.56482
G1 X94.831 Y49.909 E150.67019
G1 X95.207 Y49.909 E150.68265
G1 X49.909 Y95.207 E152.80563
G1 X49.909 Y95.582 E152.81808
G1 X95.582 Y49.909 E154.95867
G1 X95.958 Y49.909 E154.97113
G1 X49.909 Y95.958 E157.12933
G1 X49.909 Y96.334 E157.14178
G1 X96.334 Y49.909 E159.31759
G1 X96.710 Y49.909 E159.33005
G1 X49.909 Y96.710 E161.52347
G1 X49.909 Y97.085 E161.53592
G1 X97.085 Y49.909 E163.74696
G1 X97.461 Y49.909 E163.75941
G1 X49.909 Y97.461 E165.98806
G1 X49.909 Y97.837 E166.00051
G1 X97.837 Y49.909 E168.24677
G1 X98.213 Y49.909 E168.25922
G1 X49.909 Y98.213 E170.52309
G1 X49.909 Y98.588 E170.53554
G1 X98.588 Y49.909 E172.81702
G1 X98.964 Y49.909 E172.82947
G1 X49.909 Y98.964 E175.12856
G1 X49.909 Y99.340 E175.14101
G1 X99.340 Y49.909 E177.45771
G1 X99.716 Y49.909 E177.47016
G1 X49.909 Y99.716 E179.80448
G1 X49.909 Y100.091 E179.81693
G1 X100.091 Y49.909 E182.16885
G1 X100.091 Y50.284 E182.18130
G1 X50.284 Y100.091 E184.51561
G1 X50.660 Y100.091 E184.52806
G1 X100.091 Y50.660 E186.84476
G1 X100.091 Y51.036 E186.85722
G1 X51.036 Y100.091 E189.15631
G1 X51.412 Y100.091 E189.16876
G1 X100.091 Y51.412 E191.45024
G1 X100.091 Y51.787 E191.46269
G1 X51.787 Y100.091 E193.72656
G1 X52.163 Y100.091 E193.73901
G1 X100.091 Y52.163 E195.98527
G1 X100.091 Y52.539 E195.99772
G1 X52.539 Y100.091 E198.22636
G1 X52.915 Y100.091 E198.23882
G1 X100.091 Y52.915 E200.44985
G1 X100.091 Y53.290 E200.46230
G1 X53.290 Y100.091 E202.65573
G1 X53.666 Y100.091 E202.66818
G1 X100.091 Y53.666 E204.84400
G1 X100.091 Y54.042 E204.85645
G1 X54.042 Y100.091 E207.01465
G1 X54.418 Y100.091 E207.02710
G1 X100.091 Y54.418 E209.16770
G1 X100.091 Y54.793 E209.18015
G1 X54.793 Y100.091 E211.30313
G1 X55.169 Y100.091 E211.31558
G1 X100.091 Y55.169 E213.42095
G1 X100.091 Y55.545 E213.43340
G1 X55.545 Y100.091 E215.52116
G1 X55.921 Y100.091 E215.53362
G1 X100.091 Y55.921 E217.60377
G1 X100.091 Y56.296 E217.61622
G1 X56.296 Y100.091 E219.66876
G1 X56.672 Y100.091 E219.68121
G1 X100.091 Y56.672 E221.71614
G1 X100.091 Y57.048 E221.72859
G1 X57.048 Y100.091 E223.74591
G1 X57.424 Y100.091 E223.75836
G1 X100.091 Y57.424 E225.75807
G1 X100.091 Y57.800 E225.77052
G1 X57.800 Y100.091 E227.75261
G1 X58.175 Y100.091 E227.76507
G1 X100.091 Y58.175 E229.72955
G1 X100.091 Y58.551 E229.74200
G1 X58.551 Y100.091 E231.68888
G1 X58.927 Y100.091 E231.70133
G1 X100.091 Y58.927 E233.63059
G1 X100.091 Y59.303 E233.64304
G1 X59.303 Y100.091 E235.55470
G1 X59.678 Y100.091 E235.56715
G1 X100.091 Y59.678 E237.46119
G1 X100.091 Y60.054 E237.47364
G1 X60.054 Y100.091 E239.35007
G1 X60.430 Y100.091 E239.36253
G1 X100.091 Y60.430 E241.22135
G1 X100.091 Y60.806 E241.23380
G1 X60.806 Y100.091 E243.07501
G1 X61.181 Y100.091 E243.08746
G1 X100.091 Y61.181 E244.91106
G1 X100.091 Y61.557 E244.92351
G1 X61.557 Y100.091 E246.72950
G1 X61.933 Y100.091 E246.74195
G1 X100.091 Y61.933 E248.53033
G1 X100.091 Y62.309 E248.54278
G1 X62.309 Y100.091 E250.31355
G1 X62.684 Y100.091 E250.32600
G1 X100.091 Y62.684 E252.07915
G1 X100.091 Y63.060 E252.09161
G1 X63.060 Y100.091 E253.82715
G1 X63.436 Y100.091 E253.83960
G1 X100.091 Y63.436 E255.55754
G1 X100.091 Y63.812 E255.56999
G1 X63.812 Y100.091 E257.27031
G1 X64.187 Y100.091 E257.28277
G1 X100.091 Y64.187 E258.96548
G1 X100.091 Y64.563 E258.97793
G1 X64.563 Y100.091 E260.64303
G1 X64.939 Y100.091 E260.65548
G1 X100.091 Y64.939 E262.30298
G1 X100.091 Y65.315 E262.31543
G1 X65.315 Y100.091 E263.94531
G1 X65.690 Y100.091 E263.95776
G1 X100.091 Y65.690 E265.57003
G1 X100.091 Y66.066 E265.58248
G1 X66.066 Y100.091 E267.17714
G1 X66.442 Y100.091 E267.18959
G1 X100.091 Y66.442 E268.76664
G1 X100.091 Y66.818 E268.77909
G1 X66.818 Y100.091 E270.33853
G1 X67.194 Y100.091 E270.35098
G1 X100.091 Y67.194 E271.89281
G1 X100.091 Y67.569 E271.90526
G1 X67.569 Y100.091 E273.42948
G1 X67.945 Y100.091 E273.44193
G1 X100.091 Y67.945 E274.94853
G1 X100.091 Y68.321 E274.96099
G1 X68.321 Y100.091 E276.44998
G1 X68.697 Y100.091 E276.46243
G1 X100.091 Y68.697 E277.93382
G1 X100.091 Y69.072 E277.94627
G1 X69.072 Y100.091 E279.40004
G1 X69.448 Y100.091 E279.41249
G1 X100.091 Y69.448 E280.84865
G1 X100.091 Y69.824 E280.86111
G1 X69.824 Y100.091 E282.27966
G1 X70.200 Y100.091 E282.29211
G1 X100.091 Y70.200 E283.69305
G1 X100.091 Y70.575 E283.70550
G1 X70.575 Y100.091 E285.08883
G1 X70.951 Y100.091 E285.10129
G1 X100.091 Y70.951 E286.46700
G1 X100.091 Y71.327 E286.47946
G1 X71.327 Y100.091 E287.82756
G1 X71.703 Y100.091 E287.84002
G1 X100.091 Y71.703 E289.17051
G1 X100.091 Y72.078 E289.18297
G1 X72.078 Y100.091 E290.49585
G1 X72.454 Y100.091 E290.50830
G1 X100.091 Y72.454 E291.80358
G1 X100.091 Y72.830 E291.81603
G1 X72.830 Y100.091 E293.09370
G1 X73.206 Y100.091 E293.10615
G1 X100.091 Y73.206 E294.36620
G1 X100.091 Y73.581 E294.37866
G1 X73.581 Y100.091 E295.62110
G1 X73.957 Y100.091 E295.63355
G1 X100.091 Y73.957 E296.85838
G1 X100.091 Y74.333 E296.87084
G1 X74.333 Y100.091 E298.07806
G1 X74.709 Y100.091 E298.09051
G1 X100.091 Y74.709 E299.28012
G1 X100.091 Y75.085 E299.29257
G1 X75.085 Y100.091 E300.46457
G1 X75.460 Y100.091 E300.47703
G1 X100.091 Y75.460 E301.63142
G1 X100.091 Y75.836 E301.64387
G1 X75.836 Y100.091 E302.78065
G1 X76.212 Y100.091 E302.79310
G1 X100.091 Y76.212 E303.91227
G1 X100.091 Y76.588 E303.92472
G1 X76.588 Y100.091 E305.02628
G1 X76.963 Y100.091 E305.03873
G1 X100.091 Y76.963 E306.12268
G1 X100.091 Y77.339 E306.13513
G1 X77.339 Y100.091 E307.20146
G1 X77.715 Y100.091 E307.21392
G1 X100.091 Y77.715 E308.26264
G1 X100.091 Y78.091 E308.27509
G1 X78.091 Y100.091 E309.30621
G1 X78.466 Y100.091 E309.31866
G1 X100.091 Y78.466 E310.33216
G1 X100.091 Y78.842 E310.34462
G1 X78.842 Y100.091 E311.34051
G1 X79.218 Y100.091 E311.35296
G1 X100.091 Y79.218 E312.33124
G1 X100.091 Y79.594 E312.34369
G1 X79.594 Y100.091 E313.30437
G1 X79.969 Y100.091 E313.31682
G1 X100.091 Y79.969 E314.25988
G1 X100.091 Y80.345 E314.27233
G1 X80.345 Y100.091 E315.19778
G1 X80.721 Y100.091 E315.21023
G1 X100.091 Y80.721 E316.11807
G1 X100.091 Y81.097 E316.13052
G1 X81.097 Y100.091 E317.02075
G1 X81.472 Y100.091 E317.03320
G1 X100.091 Y81.472 E317.90582
G1 X100.091 Y81.848 E317.91827
G1 X81.848 Y100.091 E318.77328
G1 X82.224 Y100.091 E318.78573
G1 X100.091 Y82.224 E319.62313
G1 X100.091 Y82.600 E319.63558
G1 X82.600 Y100.091 E320.45537
G1 X82.975 Y100.091 E320.46782
G1 X100.091 Y82.975 E321.26999
G1 X100.091 Y83.351 E321.28244
G1 X83.351 Y100.091 E322.06701
G1 X83.727 Y100.091 E322.07946
G1 X100.091 Y83.727 E322.84641
G1 X100.091 Y84.103 E322.85887
G1 X84.103 Y100.091 E323.60821
G1 X84.479 Y100.091 E323.62066
G1 X100.091 Y84.479 E324.35239
G1 X100.091 Y84.854 E324.36484
G1 X84.854 Y100.091 E325.07896
G1 X85.230 Y100.091 E325.09142
G1 X100.091 Y85.230 E325.78793
G1 X100.091 Y85.606 E325.80038
G1 X85.606 Y100.091 E326.47928
G1 X85.982 Y100.091 E326.49173
G1 X100.091 Y85.982 E327.15302
G1 X100.091 Y86.357 E327.16547
G1 X86.357 Y100.091 E327.80915
G1 X86.733 Y100.091 E327.82160
G1 X100.091 Y86.733 E328.44767
G1 X100.091 Y87.109 E328.46012
G1 X87.109 Y100.091 E329.06857
G1 X87.485 Y100.091 E329.08103
G1 X100.091 Y87.485 E329.67187
G1 X100.091 Y87.860 E329.68432
G1 X87.860 Y100.091 E330.25756
G1 X88.236 Y100.091 E330.27001
G1 X100.091 Y88.236 E330.82563
G1 X100.091 Y88.612 E330.83809
G1 X88.612 Y100.091 E331.37610
G1 X88.988 Y100.091 E331.38855
G1 X100.091 Y88.988 E331.90895
G1 X100.091 Y89.363 E331.92141
G1 X89.363 Y100.091 E332.42420
G1 X89.739 Y100.091 E332.43665
G1 X100.091 Y89.739 E332.92183
G1 X100.091 Y90.115 E332.93428
G1 X90.115 Y100.091 E333.40185
G1 X90.491 Y100.091 E333.41430
G1 X100.091 Y90.491 E333.86426
G1 X100.091 Y90.866 E333.87671
G1 X90.866 Y100.091 E334.30906
G1 X91.242 Y100.091 E334.32152
G1 X100.091 Y91.242 E334.73625
G1 X100.091 Y91.618 E334.74870
G1 X91.618 Y100.091 E335.14583
G1 X91.994 Y100.091 E335.15828
